icone/instagram.svg

<svg width="20" height="21" viewBox="0 0 20 21" fill="none" xmlns="http://www.w3.org/2000/svg">
<path d="M10.0022 4.88463C7.16453 4.88463 4.87563 7.17986 4.87563 10.0254C4.87563 12.871 7.16453 15.1662 10.0022 15.1662C12.8399 15.1662 15.1288 12.871 15.1288 10.0254C15.1288 7.17986 12.8399 4.88463 10.0022 4.88463ZM10.0022 13.3676C8.16843 13.3676 6.66927 11.8687 6.66927 10.0254C6.66927 8.18206 8.16397 6.68323 10.0022 6.68323C11.8405 6.68323 13.3352 8.18206 13.3352 10.0254C13.3352 11.8687 11.836 13.3676 10.0022 13.3676ZM16.5343 4.67435C16.5343 5.34099 15.9989 5.87341 15.3385 5.87341C14.6737 5.87341 14.1428 5.33652 14.1428 4.67435C14.1428 4.01218 14.6782 3.47528 15.3385 3.47528C15.9989 3.47528 16.5343 4.01218 16.5343 4.67435ZM19.9297 5.89131C19.8539 4.2851 19.488 2.86232 18.3146 1.6901C17.1456 0.51788 15.7267 0.151002 14.1249 0.0704675C12.4741 -0.0234892 7.52593 -0.0234892 5.87507 0.0704675C4.27775 0.146528 2.8589 0.513406 1.68544 1.68563C0.511991 2.85785 0.150586 4.28062 0.0702733 5.88684C-0.0234244 7.54226 -0.0234244 12.5041 0.0702733 14.1595C0.146124 15.7657 0.511991 17.1885 1.68544 18.3607C2.8589 19.5329 4.27329 19.8998 5.87507 19.9803C7.52593 20.0743 12.4741 20.0743 14.1249 19.9803C15.7267 19.9043 17.1456 19.5374 18.3146 18.3607C19.4835 17.1885 19.8494 15.7657 19.9297 14.1595C20.0234 12.5041 20.0234 7.54674 19.9297 5.89131ZM17.797 15.9357C17.449 16.8127 16.7752 17.4883 15.8963 17.8417C14.58 18.3652 11.4568 18.2444 10.0022 18.2444C8.54769 18.2444 5.41997 18.3607 4.1082 17.8417C3.23369 17.4927 2.55996 16.8171 2.20747 15.9357C1.68544 14.6159 1.80591 11.484 1.80591 10.0254C1.80591 8.56684 1.68991 5.43048 2.20747 4.11508C2.55549 3.23815 3.22922 2.56256 4.1082 2.2091C5.42443 1.68563 8.54769 1.80643 10.0022 1.80643C11.4568 1.80643 14.5845 1.6901 15.8963 2.2091C16.7708 2.55808 17.4445 3.23368 17.797 4.11508C18.319 5.43495 18.1985 8.56684 18.1985 10.0254C18.1985 11.484 18.319 14.6203 17.797 15.9357Z" fill="#F9F5F1"/>
</svg>

<svg xmlns="http://www.w3.org/2000/svg" width="20" height="21" fill="none" viewBox="0 0 20 21">
  <path fill="#F9F5F1" d="M10.002 4.885a5.126 5.126 0 0 0-5.126 5.14 5.126 5.126 0 0 0 5.126 5.141 5.126 5.126 0 0 0 5.127-5.14 5.126 5.126 0 0 0-5.127-5.141m0 8.483a3.344 3.344 0 0 1-3.333-3.343 3.34 3.34 0 0 1 3.333-3.342 3.34 3.34 0 0 1 3.333 3.342 3.344 3.344 0 0 1-3.333 3.343m6.532-8.694a1.195 1.195 0 1 1-2.391 0c0-.662.535-1.199 1.195-1.199s1.196.537 1.196 1.2m3.396 1.217c-.076-1.606-.442-3.029-1.615-4.2C17.145.517 15.727.15 14.125.07c-1.65-.094-6.6-.094-8.25 0-1.597.076-3.016.442-4.19 1.615C.512 2.858.151 4.28.07 5.886c-.093 1.656-.093 6.618 0 8.273.076 1.607.442 3.03 1.615 4.202s2.588 1.539 4.19 1.62c1.65.093 6.6.093 8.25 0 1.602-.077 3.02-.444 4.19-1.62 1.168-1.172 1.534-2.595 1.615-4.202.093-1.655.093-6.612 0-8.268m-2.133 10.045a3.38 3.38 0 0 1-1.9 1.906c-1.317.523-4.44.402-5.895.402s-4.582.117-5.894-.402a3.38 3.38 0 0 1-1.9-1.906c-.523-1.32-.402-4.452-.402-5.91 0-1.46-.116-4.596.401-5.91a3.38 3.38 0 0 1 1.901-1.907c1.316-.523 4.44-.403 5.894-.403 1.455 0 4.583-.116 5.894.403a3.38 3.38 0 0 1 1.901 1.906c.522 1.32.401 4.452.401 5.91s.121 4.595-.401 5.91"/>
</svg>
